build/svg/cmd/sc_dataarearefresh.svg

<?xml version="1.0" encoding="UTF-8" standalone="no"?>
<svg
   xmlns:dc="http://purl.org/dc/elements/1.1/"
   xmlns:cc="http://creativecommons.org/ns#"
   xmlns:rdf="http://www.w3.org/1999/02/22-rdf-syntax-ns#"
   xmlns:svg="http://www.w3.org/2000/svg"
   xmlns="http://www.w3.org/2000/svg"
   xmlns:sodipodi="http://sodipodi.sourceforge.net/DTD/sodipodi-0.dtd"
   xmlns:inkscape="http://www.inkscape.org/namespaces/inkscape"
   viewBox="0 0 16 16"
   version="1.1"
   id="svg6"
   sodipodi:docname="sc_dataarearefresh.svg"
   inkscape:export-filename="/home/jupiter007/Libreoffice yaru theme fullcolor/build/cmd/sc_dataarearefresh.png"
   inkscape:export-xdpi="96"
   inkscape:export-ydpi="96"
   inkscape:version="0.92.5 (2060ec1f9f, 2020-04-08)">
  <metadata
     id="metadata12">
    <rdf:RDF>
      <cc:Work
         rdf:about="">
        <dc:format>image/svg+xml</dc:format>
        <dc:type
           rdf:resource="http://purl.org/dc/dcmitype/StillImage" />
      </cc:Work>
    </rdf:RDF>
  </metadata>
  <defs
     id="defs10" />
  <sodipodi:namedview
     pagecolor="#ffffff"
     bordercolor="#666666"
     borderopacity="1"
     objecttolerance="10"
     gridtolerance="10"
     guidetolerance="10"
     inkscape:pageopacity="0"
     inkscape:pageshadow="2"
     inkscape:window-width="1920"
     inkscape:window-height="1011"
     id="namedview8"
     showgrid="true"
     inkscape:zoom="29.5"
     inkscape:cx="0.83861608"
     inkscape:cy="8.1584769"
     inkscape:window-x="0"
     inkscape:window-y="32"
     inkscape:window-maximized="1"
     inkscape:current-layer="svg6">
    <inkscape:grid
       type="xygrid"
       id="grid840" />
  </sodipodi:namedview>
  <circle
     style="opacity:1;vector-effect:none;fill:#762572;fill-opacity:1;stroke:none;stroke-width:3.49999976;stroke-linecap:butt;stroke-linejoin:round;stroke-miterlimit:4;stroke-dasharray:none;stroke-dashoffset:0;stroke-opacity:1"
     id="path2644"
     cy="10.5"
     cx="10.5"
     r="3.5" />
  <path
     d="m 10.499999,8 c -0.433427,0 -0.832855,0.1201 -1.1875,0.3125 l 0.75,0.75 C 10.199593,9.0215 10.349208,9 10.499999,9 c 0.831,0 1.5,0.669 1.5,1.5 0,0.1508 -0.02148,0.3004 -0.0625,0.4375 l 0.75,0.75 c 0.192495,-0.3547 0.3125,-0.7541 0.3125,-1.1875 0,-1.385 -1.115,-2.5 -2.5,-2.5 z m -2.1875,1.3125 C 8.120004,9.6672 7.9999999,10.0666 7.9999999,10.5 c 0,1.385 1.1149991,2.5 2.4999991,2.5 0.433427,0 0.832855,-0.1201 1.1875,-0.3125 l -0.75,-0.75 C 10.800405,11.9785 10.65079,12 10.499999,12 c -0.831,0 -1.5,-0.669 -1.5,-1.5 0,-0.1508 0.02147,-0.3004 0.0625,-0.4375 z"
     id="path4"
     inkscape:connector-curvature="0"
     style="fill:#ffffff;fill-opacity:1"
     sodipodi:nodetypes="sccssccsscssccsscc" />
  <rect
     style="opacity:1;fill:#ffffff;fill-opacity:1;fill-rule:evenodd;stroke:none;stroke-width:2;stroke-linecap:butt;stroke-linejoin:round;stroke-miterlimit:4;stroke-dasharray:none;stroke-opacity:1"
     id="rect843"
     width="2"
     height="8"
     x="2"
     y="5" />
  <rect
     style="opacity:1;fill:#a6d74f;fill-opacity:1;fill-rule:evenodd;stroke:none;stroke-width:2;stroke-linecap:butt;stroke-linejoin:round;stroke-miterlimit:4;stroke-dasharray:none;stroke-opacity:1"
     id="rect845"
     width="11"
     height="2"
     x="2"
     y="2" />
  <path
     style="opacity:1;fill:#6d6d6d;fill-opacity:1;fill-rule:evenodd;stroke:none;stroke-width:2;stroke-linecap:butt;stroke-linejoin:round;stroke-miterlimit:4;stroke-dasharray:none;stroke-opacity:1"
     d="m 1,3 v 2 7 c 0,2 1,2 3,2 H 5 V 5 h 9 V 3 C 14,1 13,1 11,1 H 5 4 C 2,1 1,1 1,3 Z M 2,3 C 2,2 3,2 4,2 V 4 H 2 Z M 5,2 H 7 V 4 H 5 Z M 8.0000004,2 H 10 V 4 H 8.0000004 Z M 11,2 c 1,0 2,0 2,1 V 4 H 11 Z M 2,5 H 4 V 7 H 2 Z m 0,3 h 2 v 2 H 2 Z m 0,3 h 2 v 2 C 3,13 2,13 2,12 Z"
     id="rect824"
     inkscape:connector-curvature="0"
     sodipodi:nodetypes="ccccccccccccccccccccccccccccccccccccccccccccccc" />
</svg>

<svg xmlns="http://www.w3.org/2000/svg" viewBox="0 0 16 16"><circle cy="10.5" cx="10.5" r="3.5" fill="#762572"/><path d="M10.5 8c-.433 0-.833.12-1.188.313l.75.75C10.2 9.02 10.35 9 10.5 9c.831 0 1.5.669 1.5 1.5 0 .15-.021.3-.063.438l.75.75c.193-.355.313-.755.313-1.188C13 9.115 11.885 8 10.5 8zM8.312 9.313A2.476 2.476 0 008 10.5c0 1.385 1.115 2.5 2.5 2.5.433 0 .833-.12 1.187-.313l-.75-.75A1.539 1.539 0 0110.5 12c-.831 0-1.5-.669-1.5-1.5 0-.15.021-.3.062-.438z" fill="#fff"/><path fill="#fff" fill-rule="evenodd" d="M2 5h2v8H2z"/><path fill="#a6d74f" fill-rule="evenodd" d="M2 2h11v2H2z"/><path d="M1 3v9c0 2 1 2 3 2h1V5h9V3c0-2-1-2-3-2H4C2 1 1 1 1 3zm1 0c0-1 1-1 2-1v2H2zm3-1h2v2H5zm3 0h2v2H8zm3 0c1 0 2 0 2 1v1h-2zM2 5h2v2H2zm0 3h2v2H2zm0 3h2v2c-1 0-2 0-2-1z" fill="#6d6d6d" fill-rule="evenodd"/></svg>
